X: 8
T: Missa J'ay pris amours / Credo (first setting)
N: Derived from Ort1002c-Missa_Jay_pris_amours-Credo-first_setting.krn
C: Marbrianus de Orto
%%abc-version 2.0
%%abcx-abcm2ps-target-version 5.9.1 (29 Sep 2008)
%%abc-creator hum2abc beta
%%abcx-conversion-date 2019/02/17 07:28:36
%%abc-edited-by Jesse Rodin
%%abc-edited-by Jesse Rodin 8/11/2013
%%abcx-initial-encoding-date 2013/08/11/
%%humdrum-veritas 3124535048
%%humdrum-veritas-data 3272053752
%%linebreak <none>
%%barnumbers 0
L: 1/4
M: 3/1
Q: 1/2=120
%%staves [1 2 3 4]
V: 1 clef=treble
V: 2 clef=treble-8
V: 3 clef=treble-8
V: 4 clef=bass
K: C
[V:1] A4c4B4 | 
[V:2] z12 | 
[V:3] z12 | 
[V:4] z12 | 
[V:1] E4z4G4 | 
[V:2] c4f4e4 | 
[V:3] z12 | 
[V:4] z12 | 
[V:1] A3Bc2A2B4 | 
[V:2] A4z2e4d2 | 
[V:3] z12 | 
[V:4] F,4A,4G,4 | 
[V:1] z2E2D2E2F4 | 
[V:2] e4z2A4A2 | 
[V:3] z12 | 
[V:4] C,4D,2C,2D,4 | 
[V:1] z2G2c4A4 | 
[V:2] e4f2e2f2ed | 
[V:3] z12 | 
[V:4] C,4z4D,4 | 
[V:1] z2A4G2F2G2- | 
[V:2] c2d3cc2d2cB | 
[V:3] z12 | 
[V:4] E,2D,2E,4D,4 | 
[V:1] G2^F2G4z2c2- | 
[V:2] A4z2c3de2- | 
[V:3] z12 | 
[V:4] z4E,4F,2E,2 | 
[V:1] cBA2G8 | 
[V:2] edd2e2dcB4 | 
[V:3] z12 | 
[V:4] F,4E,4z4 | 
[V:1] A4z4B4 | 
[V:2] A2GFE2F2E2e2- | 
[V:3] z12 | 
[V:4] F,4G,2F,2G,4 | 
[V:1] c2BAG2A2B4 | 
[V:2] e2d2e2f2d2e2- | 
[V:3] z12 | 
[V:4] F,4z4G,4 | 
[V:1] z2E4F2G2E2 | 
[V:2] efg2c4z4 | 
[V:3] z12 | 
[V:4] A,2G,2A,4G,4 | 
[V:1] F4E3FG2A2- | 
[V:2] d4e3cd2e2 | 
[V:3] z12 | 
[V:4] z4A,4B,2A,2 | 
[V:1] A2G2A2E2z2A2- | 
[V:2] E4F2A3GF2 | 
[V:3] z12 | 
[V:4] B,4A,4z4 | 
[V:1] A2G2A2G2z2A2- | 
[V:2] E4z4e4 | 
[V:3] z12 | 
[V:4] B,4C2B,2C4 | 
[V:1] A2G2c2d2e4 | 
[V:2] d4e2f2g2c2- | 
[V:3] z12 | 
[V:4] B,4z4E,4 | 
[V:1] A2B3AA4^G2 | 
[V:2] cde2A4B4 | 
[V:3] z12 | 
[V:4] F,2E,2F,4E,4 | 
[V:1] A4z4z4 | 
[V:2] A4e6d2 | 
[V:3] A4c2c2B4 | 
[V:4] z2A,3G,E,3F,G,A, | 
[V:1] G4A2c2B4 | 
[V:2] e6f2g4 | 
[V:3] E4z4z4 | 
[V:4] B,2C4A,2G,4 | 
[V:1] E4z4G4 | 
[V:2] c2e2f2d4c2 | 
[V:3] A4A2A2G4 | 
[V:4] z2C,2D,2F,2E,4 | 
[V:1] F2E3DC2B,4 | 
[V:2] z4G2A4G2 | 
[V:3] A4E4z4 | 
[V:4] D,2C,3B,,A,,2E,4 | 
[V:1] z4z4A2B2 | 
[V:2] A2B2c2BGA2G2 | 
[V:3] z2G2A2B2c2BG | 
[V:4] F,2E,2z2G,2F,2G,2 | 
[V:1] c2BGA2z4G2 | 
[V:2] z4A2Bcd2e2- | 
[V:3] A2G2z2G2A2B2 | 
[V:4] F,2G,E,F,2E,2F,2E,2 | 
[V:1] A2G2z2G2A2G2 | 
[V:2] e4c2Be2de2 | 
[V:3] c2BGA2G2z2B2 | 
[V:4] z2E,2F,2G,E,F,2E,G, | 
[V:1] A3Bc2B2E2z2 | 
[V:2] z2f2g4c2de- | 
[V:3] c2d2e2dBcA2B | 
[V:4] F,3E,/D,/C,2G,2A,2F,E, | 
[V:1] A2B2c3ded2c/B/ | 
[V:2] ede4c2B2G2 | 
[V:3] AFG2A4z2B2 | 
[V:4] F,2E,2z2F,2G,4 | 
[V:1] A2A2G2AA2^F^G2 | 
[V:2] z2A2BcA2e4 | 
[V:3] c2d2ec2dcAB2 | 
[V:4] F,4E,2F,2E,4 | 
[V:1] A4z4z4 | 
[V:2] z2e3dc3Be2- | 
[V:3] A8z4 | 
[V:4] z4z2A,4G,2 | 
[V:1] z12 | 
[V:2] e2d2e4d2e2- | 
[V:3] A4c2B4G2 | 
[V:4] F,4E,3F,G,4 | 
[V:1] z12 | 
[V:2] edefg2a2f4 | 
[V:3] A2G4c4B2 | 
[V:4] C,4E,2F,2D,4 | 
[V:1] z2E2F2E2C4 | 
[V:2] e4d2B2c2A2 | 
[V:3] c4z4z4 | 
[V:4] C,4z2G,2A,2C2- | 
[V:1] D4C2c4B2- | 
[V:2] G4z2e4e2- | 
[V:3] z4A6G2 | 
[V:4] C2B,2C4z4 | 
[V:1] B2A4G2A2G2 | 
[V:2] edd2e4c4- | 
[V:3] F4E4z2e2 | 
[V:4] z4B,4A,2C2 | 
[V:1] A2G4c4B2 | 
[V:2] c4e2f2g4 | 
[V:3] f2e2c4d4 | 
[V:4] F,2C4A,2G,4 | 
[V:1] c4z4c4 | 
[V:2] e2a4g4f2- | 
[V:3] c4z4z4 | 
[V:4] z2C2B,2G,2A,4 | 
[V:1] B2G2A4G2E2- | 
[V:2] f2e4d2e2c2 | 
[V:3] z12 | 
[V:4] E,2G,2F,4E,2A,2- | 
[V:1] E2A4G4^F2 | 
[V:2] e2f2d2c2d4 | 
[V:3] c4B2G2A4 | 
[V:4] A,2F,2G,2E,2D,4 | 
[V:1] G4z4z4 | 
[V:2] B2cde2d2z4 | 
[V:3] G2E4A4G2 | 
[V:4] z2C,4D,2E,4 | 
[V:1] z4z4A3G | 
[V:2] z4d4c3B | 
[V:3] A2B2G4z2c2- | 
[V:4] C,2D,2B,,4A,,4 | 
[V:1] FEE4D2E4 | 
[V:2] A2G2c2A2B2G2 | 
[V:3] c2B2A4G2c2- | 
[V:4] z2E,2F,4E,4 | 
[V:1] A4G2c4d2- | 
[V:2] c2A2B2e2c2f2 | 
[V:3] c2d2e4A4 | 
[V:4] F,4E,4F,2D,2 | 
[V:1] d2e3dB2c2BA | 
[V:2] z2g2e2g3ef2 | 
[V:3] G2c4d2e2dc | 
[V:4] G,2E,2A,2G,2C,2D,2 | 
[V:1] G2A4^G2A4 | 
[V:2] e2d2e4A2c2- | 
[V:3] B2A2B4z4 | 
[V:4] E,2F,2E,4z2A,2- | 
[V:1] z4z2G2A2B2 | 
[V:2] cde2A2e2f2e2- | 
[V:3] E4F2E2A2G2 | 
[V:4] A,2G,2C4z4 | 
[V:1] c2BAG2B2A4 | 
[V:2] e2d2e2g4^f2 | 
[V:3] F4E4z4 | 
[V:4] z4z4D4 | 
[V:1] G4z4z4 | 
[V:2] g2e2d4z4 | 
[V:3] z4G4A3G | 
[V:4] G,2C4B,2C2A,2- | 
[V:1] z4z4z2G2 | 
[V:2] z2B2c2d2GAB2 | 
[V:3] FEE4D2E4 | 
[V:4] A,2G,2F,4E,4 | 
[V:1] A2B2c2G2A2B2 | 
[V:2] c2d2A2c4e2- | 
[V:3] z4z4z2G2 | 
[V:4] z2G,2F,2E,2F,2E,2 | 
[V:1] c2d2G3ABcd2- | 
[V:2] e2d2e3fg4 | 
[V:3] A2B2c3BG2B2 | 
[V:4] z12 | 
[V:1] d2c4B2c4 | 
[V:2] c4d4c3B | 
[V:3] A4G4z4 | 
[V:4] z4z2G,2A,3G, | 
[V:1] z2A4G2A2G2 | 
[V:2] c2d2B4A2e2- | 
[V:3] z4z4z2B2 | 
[V:4] E,2D,2E,4z2E,2 | 
[V:1] z12 | 
[V:2] e2d2f2e4f2 | 
[V:3] B2B2c3BG2A2 | 
[V:4] G,4A,3G,E,2D,2 | 
[V:1] z2G2A2GFE4- | 
[V:2] e2c4B2c4 | 
[V:3] B2G4F2G4 | 
[V:4] G,2E,2D,4C,3D, | 
[V:1] E2D2G3F/E/D4 | 
[V:2] B4c2A4DE | 
[V:3] z4z2E2F2G2 | 
[V:4] E,F,G,2C,4B,,4 | 
[V:1] C4z2E2F2G2 | 
[V:2] FGA2G4F2c2- | 
[V:3] A2E2z4z2E2 | 
[V:4] z2A,,2B,,2C,2D,2C,2 | 
[V:1] A2E2z2B2c3B | 
[V:2] c2c4B2e4 | 
[V:3] F2G2A2E2z4 | 
[V:4] z2C,2F,2G,2A,2E,2 | 
[V:1] A2G2c2B2z2G2 | 
[V:2] z2B2e4A2e2 | 
[V:3] z2G2A2G2c3B | 
[V:4] F,2E,2z2E,2F,2E,2 | 
[V:1] A2B2E4F2G2 | 
[V:2] c2B2c4A2c2- | 
[V:3] A2G2z4z2G2 | 
[V:4] F,2G,2z2C,2D,2C,2 | 
[V:1] C2G4G2A2E2 | 
[V:2] cde4e2f2g2 | 
[V:3] A2G2c3BA2G2 | 
[V:4] F,2E,2C,4z2E,2 | 
[V:1] z2G2A2G2c2d2 | 
[V:2] c3BA2E2A2G2 | 
[V:3] z4c2Be2dB2 | 
[V:4] F,2E,2F,2G,2z2G,2 | 
[V:1] e4z4c4 | 
[V:2] z2c2B4A2f2- | 
[V:3] c2A4^G2A4 | 
[V:4] C,3D,E,4F,3E, | 
[V:1] d2e2A2c4B2 | 
[V:2] f2g2f2e2f2g2 | 
[V:3] z4z4c2d2 | 
[V:4] D,2C,2D,2A,,2A,2G,2 | 
[V:1] c2A4^G2A4 ||  
[V:2] c2d2e8 ||  
[V:3] A4B4A4 ||  
[V:4] F,4E,4A,,4 ||  
[V:1]  [K:C] [K:clef=treble][M:2/1]z8 | 
[V:2]  [K:C] [K:clef=treble-8][M:2/1]z8 | 
[V:3]  [K:C] [K:clef=treble-8][M:2/1]A4c4 | 
[V:4]  [K:C] [K:clef=bass][M:2/1]A,4A,4 | 
[V:1] z8 | 
[V:2] z4e4 | 
[V:3] B4A4 | 
[V:4] G,4A,4 | 
[V:1] A8 | 
[V:2] f4e4 | 
[V:3] d2d4c2 | 
[V:4] D,4A,4 | 
[V:1] A4A4 | 
[V:2] d3efga2- | 
[V:3] d6cB | 
[V:4] z8 | 
[V:1] c8 | 
[V:2] a2g4^f2 | 
[V:3] A4z2c2 | 
[V:4] A,8 | 
[V:1] B8 | 
[V:2] g4z4 | 
[V:3] d2e2-edB2 | 
[V:4] G,4E,2G,2 | 
[V:1] E8 | 
[V:2] z4g4 | 
[V:3] c2A2B4 | 
[V:4] A,4E,2G,2 | 
[V:1] z4A4 | 
[V:2] e2g2a2gf | 
[V:3] z2c4d2 | 
[V:4] A,2E,2F,2E,D, | 
[V:1] A2A2G4 | 
[V:2] e2d2e4- | 
[V:3] c2A2B4 | 
[V:4] A,2F,2E,4 | 
[V:1] A4E4 | 
[V:2] e2f2g4 | 
[V:3] A4G2A2 | 
[V:4] z4C,4 | 
[V:1] G4A4 | 
[V:2] g4f4 | 
[V:3] B2c4BA | 
[V:4] E,4F,4 | 
[V:1] B8 | 
[V:2] z2d2e4 | 
[V:3] d4z2G2 | 
[V:4] G,4E,4 | 
[V:1] c8 | 
[V:2] e3de2f2 | 
[V:3] A3Bc4 | 
[V:4] z4A,4 | 
[V:1] B4G4 | 
[V:2] g4z2g2- | 
[V:3] z2G2B2c2- | 
[V:4] G,2E,2E,4 | 
[V:1] A8 | 
[V:2] g2^fe^f4 | 
[V:3] c2BAd4 | 
[V:4] z8 | 
[V:1] G8 | 
[V:2] g4z2g2- | 
[V:3] G4E4 | 
[V:4] B,4C4 | 
[V:1] z4B4 | 
[V:2] g2a4g2 | 
[V:3] F4E4 | 
[V:4] D4E4 | 
[V:1] c8 | 
[V:2] a4a4- | 
[V:3] z8 | 
[V:4] A,8 | 
[V:1] d8 | 
[V:2] a2gfg4 | 
[V:3] z8 | 
[V:4] B,8 | 
[V:1] e6dc | 
[V:2] z2g4fe | 
[V:3] z8 | 
[V:4] E,8 | 
[V:1] B4d4 | 
[V:2] d4z2g2- | 
[V:3] d4B4 | 
[V:4] G,4G,4 | 
[V:1] c2B4A2 | 
[V:2] g2g4d2 | 
[V:3] e4d3c | 
[V:4] z2E,2G,2F,2 | 
[V:1] G2A4^G2 | 
[V:2] e2f2e4- | 
[V:3] c2d2B4 | 
[V:4] E,2D,2E,4 | 
[V:1] A8 ||  
[V:2] e8 ||  
[V:3] A8 ||  
[V:4] A,,8 ||  
[V:1]  [K:C] [K:clef=treble][M:2/1]z8 | 
[V:2]  [K:C] [K:clef=treble-8][M:2/1]z4e4 | 
[V:3]  [K:C] [K:clef=treble-8][M:2/1]E4A4 | 
[V:4]  [K:C] [K:clef=bass][M:2/1]z8 | 
[V:1] z8 | 
[V:2] e2e4g2- | 
[V:3] G4E4 | 
[V:4] z4C,4 | 
[V:1] E4A4 | 
[V:2] g2e4d2 | 
[V:3] z8 | 
[V:4] E,4F,4 | 
[V:1] G4E4 | 
[V:2] e4z4 | 
[V:3] z2E2G2A2- | 
[V:4] E,4C,4 | 
[V:1] z2A4G2 | 
[V:2] e4e2e2- | 
[V:3] A2c2B4 | 
[V:4] z4E,4 | 
[V:1] A4G2E2 | 
[V:2] e2d2e4 | 
[V:3] A4z2A2 | 
[V:4] F,4E,2C,2 | 
[V:1] F4E4 | 
[V:2] z2A2c3d | 
[V:3] A2A2A4 | 
[V:4] D,4A,,4 | 
[V:1] z2C2C2D2 | 
[V:2] e2f2g4 | 
[V:3] z4E2G2- | 
[V:4] A,4z4 | 
[V:1] E2F2D4 | 
[V:2] z4g4- | 
[V:3] G2A2B4 | 
[V:4] z2D,2G,4 | 
[V:1] C4z2G2 | 
[V:2] g2c2d2e2 | 
[V:3] c2G2A2G2 | 
[V:4] C,2E,2F,2G,2 | 
[V:1] A4G4 | 
[V:2] f4g2g2- | 
[V:3] c4z2G2 | 
[V:4] F,4E,4 | 
[V:1] c6B2 | 
[V:2] g2f2g4 | 
[V:3] A4G4 | 
[V:4] z4C,2E,2 | 
[V:1] A4G4 | 
[V:2] z4z2d2- | 
[V:3] c6B2 | 
[V:4] F,4E,2G,2- | 
[V:1] z4E4 | 
[V:2] d2d2c2c2- | 
[V:3] A4G2G2- | 
[V:4] G,2F,2C,4 | 
[V:1] F4E4 | 
[V:2] c2B2c4 | 
[V:3] G2F2G4 | 
[V:4] D,4C,4 | 
[V:1] A6G2 | 
[V:2] z2ABcde2- | 
[V:3] F4E4 | 
[V:4] z8 | 
[V:1] F4E4 | 
[V:2] e2d2e4 | 
[V:3] z4z2c2 | 
[V:4] z2D,2A,4 | 
[V:1] z4G4 | 
[V:2] z8 | 
[V:3] d2e4e2- | 
[V:4] G,2C3B,A,G, | 
[V:1] A4G4 | 
[V:2] z2A2B2c2- | 
[V:3] e2d2e4 | 
[V:4] F,4z2E,2 | 
[V:1] c6B2 | 
[V:2] c2A2cBe2- | 
[V:3] A4z4 | 
[V:4] F,4E,2G,2 | 
[V:1] A4G4 | 
[V:2] e2d2e2d2- | 
[V:3] A4B4 | 
[V:4] F,4E,2G,2 | 
[V:1] z4E4 | 
[V:2] def2g4 | 
[V:3] A2c4C2 | 
[V:4] F,4z2E,2 | 
[V:1] F4E4 | 
[V:2] z4c4 | 
[V:3] D4C4 | 
[V:4] A,4A,2G,2 | 
[V:1] A6G2 | 
[V:2] d4e4 | 
[V:3] z4z2C2 | 
[V:4] F,4E,4 | 
[V:1] F4E4 | 
[V:2] A3Bcde2 | 
[V:3] D4C2c2- | 
[V:4] z4z2E,2 | 
[V:1] z4B4 | 
[V:2] A4z4 | 
[V:3] c2d2e4 | 
[V:4] F,2F,2E,4 | 
[V:1] c4d4 | 
[V:2] e4g4- | 
[V:3] A4G4 | 
[V:4] z4B,4 | 
[V:1] e6dc | 
[V:2] g4g4- | 
[V:3] z2c2c2e2 | 
[V:4] C4E,4 | 
[V:1] B4c2d2- | 
[V:2] g2d2f4- | 
[V:3] d4z2A2 | 
[V:4] G,4F,4 | 
[V:1] dcBAG4 | 
[V:2] f4e4 | 
[V:3] d4B4 | 
[V:4] D,4E,4 | 
[V:1] z2B2B2A2 | 
[V:2] z2g2g2f2 | 
[V:3] z2e2d2c2 | 
[V:4] z2E,2G,2A,2 | 
[V:1] B2d2c2B2- | 
[V:2] g4e2e2 | 
[V:3] d2B2A2G2 | 
[V:4] G,4z2E,2 | 
[V:1] B2A4^G2 | 
[V:2] d4e4 | 
[V:3] A4B4 | 
[V:4] F,4E,4 | 
[V:1] A4z4 | 
[V:2] c4z4 | 
[V:3] A4z4 | 
[V:4] A,,4z4 | 
[V:1] E4F2F2 | 
[V:2] c4A2d2 | 
[V:3] G4F2D2 | 
[V:4] C,4D,2D,2 | 
[V:1] E4z2E2 | 
[V:2] c4z2e2 | 
[V:3] A4z2G2 | 
[V:4] A,,4z2C,2 | 
[V:1] F6F2 | 
[V:2] d3cA2B2 | 
[V:3] _B2A2F4 | 
[V:4] D,6D,2 | 
[V:1] E4z4 | 
[V:2] c8 | 
[V:3] G4z2A2 | 
[V:4] C,4z4 | 
[V:1] A4G3F | 
[V:2] z2c4g2 | 
[V:3] F2F2E4 | 
[V:4] z8 | 
[V:1] E4z4 | 
[V:2] f2e4d2- | 
[V:3] z8 | 
[V:4] A,4G,2F,2 | 
[V:1] z2E2F4 | 
[V:2] d2^c2d4 | 
[V:3] z8 | 
[V:4] E,4D,4- | 
[V:1] F4E4 | 
[V:2] z2A2B2c2- | 
[V:3] A4G2E2 | 
[V:4] D,4z4 | 
[V:1] A4G2E2 | 
[V:2] c2d2e4 | 
[V:3] F2F2E4 | 
[V:4] z2A,2B,2C2 | 
[V:1] F2F2E4 | 
[V:2] A4c3d | 
[V:3] D4z2A2 | 
[V:4] D2D2E4 | 
[V:1] z4A4 | 
[V:2] e2A2f4 | 
[V:3] c4d4 | 
[V:4] E,2F,4E,D, | 
[V:1] c4B4 | 
[V:2] e4g4- | 
[V:3] e8 | 
[V:4] C,4z4 | 
[V:1] E4z4 | 
[V:2] g4z4 | 
[V:3] z4A2c2- | 
[V:4] C6F,2 | 
[V:1] A4c2c2 | 
[V:2] f4e2c2 | 
[V:3] c2d2e4- | 
[V:4] F,4z2A,2 | 
[V:1] B4E3F | 
[V:2] g4c3d | 
[V:3] e4z4 | 
[V:4] G,2E,2A,2G,F, | 
[V:1] GAB4AG | 
[V:2] e2d2G2c2 | 
[V:3] z4e4 | 
[V:4] E,2G,4F,E, | 
[V:1] A4z2G2 | 
[V:2] d4e4 | 
[V:3] f4e4 | 
[V:4] D,4C,4 | 
[V:1] A4c4- | 
[V:2] A4e2f2 | 
[V:3] c8 | 
[V:4] F,4A,4 | 
[V:1] c4B4 | 
[V:2] g8 | 
[V:3] d8 | 
[V:4] G,8 | 
[V:1] c8 | 
[V:2] e3fg2c2- | 
[V:3] c8- | 
[V:4] C,3D,E,2F,2 | 
[V:1] z8 | 
[V:2] cdefg4- | 
[V:3] c4B4 | 
[V:4] C,3D,E,F,G,2 | 
[V:1] z8 | 
[V:2] g2^fe^f4 | 
[V:3] A8 | 
[V:4] D,4D,4 | 
[V:1] B3cd2G2- | 
[V:2] g2fed2e2- | 
[V:3] G8 | 
[V:4] z4G,2G,2 | 
[V:1] G2A2E3F | 
[V:2] e2A3Bcd | 
[V:3] c8- | 
[V:4] E,2F,2C,4 | 
[V:1] GAG4A2- | 
[V:2] e4z4 | 
[V:3] c8 | 
[V:4] z8 | 
[V:1] AGFEF4 | 
[V:2] z8 | 
[V:3] d4d4 | 
[V:4] z8 | 
[V:1] E4z2G2 | 
[V:2] B4c2B2 | 
[V:3] e8 | 
[V:4] E,4A,2G,2 | 
[V:1] A4E4 | 
[V:2] c2d2c4 | 
[V:3] A8 | 
[V:4] F,4z2A,2 | 
[V:1] z2G2A2G2 | 
[V:2] B4A2e2 | 
[V:3] G4c4- | 
[V:4] E,4F,2E,2 | 
[V:1] c3BA4 | 
[V:2] e4z2A2 | 
[V:3] c4d4 | 
[V:4] A,3G,F,4 | 
[V:1] G4c4 | 
[V:2] B2c3de2 | 
[V:3] e8 | 
[V:4] E,4z2C,2 | 
[V:1] z4c4 | 
[V:2] c2f4e2 | 
[V:3] A8 | 
[V:4] F,3G,A,4 | 
[V:1] d2e4dc | 
[V:2] g2a4a2 | 
[V:3] G2c4d2 | 
[V:4] B,2A,4D,2 | 
[V:1] B2c4BA | 
[V:2] gfedc2e2- | 
[V:3] e6dc | 
[V:4] G,2A,3G,E,2- | 
[V:1] G2A4G2 | 
[V:2] e2f2e4 | 
[V:3] B8 | 
[V:4] E,2D,2E,4 | 
[V:1] c4B4 | 
[V:2] f2e3fg2- | 
[V:3] z4G4 | 
[V:4] z4E,4 | 
[V:1] e4d2B2 | 
[V:2] g2g2g4 | 
[V:3] c4d2e2- | 
[V:4] C,4G,4 | 
[V:1] c2A4c2 | 
[V:2] e4z4 | 
[V:3] e2c2d2e2- | 
[V:4] A,4F,2E,2- | 
[V:1] B4E3F | 
[V:2] g4g3f | 
[V:3] e2E3FGA | 
[V:4] E,F,G,2C,2E,2- | 
[V:1] G2A2E3F | 
[V:2] edc4A2 | 
[V:3] B2A3Bcd | 
[V:4] E,2F,2A,2G,F, | 
[V:1] G2A2G2c2- | 
[V:2] B2A2e2cd | 
[V:3] e2c3BA2 | 
[V:4] E,2F,2E,2F,2 | 
[V:1] cBd2c2B2- | 
[V:2] efg2e4 | 
[V:3] c2B2A2G2 | 
[V:4] A,2G,2A,2E,2 | 
[V:1] B2A4^G2 | 
[V:2] d4e4 | 
[V:3] A4B4 | 
[V:4] F,4E,4 | 
[V:1] A8 ||  
[V:2] e8 ||  
[V:3] A8 ||  
[V:4] A,,8 ||  
[V:1]  [K:C] [K:clef=treble][M:3/1]z12 | 
[V:2]  [K:C] [K:clef=treble-8][M:3/1]B4c4B4 | 
[V:3]  [K:C] [K:clef=treble-8][M:3/1]z4z4B4 | 
[V:4]  [K:C] [K:clef=bass][M:3/1]E,8E,4- | 
[V:1] z12 | 
[V:2] e8d4 | 
[V:3] c4A8 | 
[V:4] E,4F,8 | 
[V:1] z12 | 
[V:2] g8f4 | 
[V:3] B4c8 | 
[V:4] E,8A,4- | 
[V:1] z12 | 
[V:2] e8d4 | 
[V:3] c4B4A4 | 
[V:4] A,4G,4F,4 | 
[V:1] E4E4F4 | 
[V:2] z4c4d4 | 
[V:3] z12 | 
[V:4] E,4z4z4 | 
[V:1] E4A8 | 
[V:2] e4f8 | 
[V:3] z12 | 
[V:4] z12 | 
[V:1] G4F8 | 
[V:2] e8d4 | 
[V:3] z12 | 
[V:4] z12 | 
[V:1] E4G4A4 | 
[V:2] e8c2d2 | 
[V:3] z12 | 
[V:4] E,4E,4F,4 | 
[V:1] B4c4d4- | 
[V:2] e4c4g4 | 
[V:3] G4A4B4 | 
[V:4] E,4A,4G,4 | 
[V:1] d2c2B2A2B4 | 
[V:2] a4f4g4 | 
[V:3] A4d8 | 
[V:4] F,4D,4G,4 | 
[V:1] A8^G4 | 
[V:2] e8e4 | 
[V:3] c4B8 | 
[V:4] A,4E,8 | 
[V:1] A12 | 
[V:2] c8d4 | 
[V:3] A4z4z4 | 
[V:4] z4F,4F,4 | 
[V:1] z12 | 
[V:2] e8f4 | 
[V:3] c8c4 | 
[V:4] E,4A,8 | 
[V:1] B8B4 | 
[V:2] g8g4 | 
[V:3] d8d4 | 
[V:4] G,8G,4 | 
[V:1] B8B4 | 
[V:2] g8e4 | 
[V:3] e8z4 | 
[V:4] E,12 | 
[V:1] c8B2A2 | 
[V:2] e8c2d2 | 
[V:3] A8A4 | 
[V:4] z12 | 
[V:1] G8z4 | 
[V:2] e2f2g8 | 
[V:3] B4c4B2A2 | 
[V:4] E,4C,2D,2E,2F,2 | 
[V:1] d8c4 | 
[V:2] g8a4 | 
[V:3] G4z4z4 | 
[V:4] G,2A,2B,4A,4 | 
[V:1] B4A8 | 
[V:2] d4f8 | 
[V:3] d8c4 | 
[V:4] G,4F,8 | 
[V:1] G8^F4 | 
[V:2] e4d8 | 
[V:3] B4A8 | 
[V:4] G,4D,8 | 
[V:1] G8z4 | 
[V:2] B6c2d2e2 | 
[V:3] G8z4 | 
[V:4] D8B,4 | 
[V:1] z12 | 
[V:2] f4e8 | 
[V:3] c8B4 | 
[V:4] A,8G,4 | 
[V:1] z12 | 
[V:2] A8A4 | 
[V:3] c4d8 | 
[V:4] A,4F,8 | 
[V:1] G8G4 | 
[V:2] B4c6B2 | 
[V:3] e12 | 
[V:4] E,8C,4 | 
[V:1] G4A8 | 
[V:2] G4d8 | 
[V:3] z4z4A4 | 
[V:4] E,4D,8 | 
[V:1] E4z4G4 | 
[V:2] g6f2d4 | 
[V:3] c8B4 | 
[V:4] C,4z4z4 | 
[V:1] A8G4 | 
[V:2] c4d8 | 
[V:3] A4z4z4 | 
[V:4] F,4F,4G,4 | 
[V:1] E8z4 | 
[V:2] c8d4 | 
[V:3] c4A4G4 | 
[V:4] A,4C4B,4 | 
[V:1] G4A4G4 | 
[V:2] e4A4e4 | 
[V:3] c8c4 | 
[V:4] E,4F,4E,4 | 
[V:1] A8B4 | 
[V:2] c4f4d4 | 
[V:3] c4d6c2 | 
[V:4] F,4D,4G,4 | 
[V:1] c8B2A2 | 
[V:2] z4c4d4 | 
[V:3] A4z4z4 | 
[V:4] F,2E,2F,4F,4 | 
[V:1] G12 | 
[V:2] e6f2g4 | 
[V:3] B8c4- | 
[V:4] E,8C,4 | 
[V:1] z4z4B4 | 
[V:2] a8g4 | 
[V:3] c4d8 | 
[V:4] F,8G,2G,2 | 
[V:1] c8d4 | 
[V:2] g8f4 | 
[V:3] e8d4 | 
[V:4] C,4z4z4 | 
[V:1] e8d2c2 | 
[V:2] g8g4 | 
[V:3] c8B2A2 | 
[V:4] C,8C,4 | 
[V:1] B8z4 | 
[V:2] g6f2d4 | 
[V:3] G8z4 | 
[V:4] E,6F,2G,4 | 
[V:1] z12 | 
[V:2] e4f4e4 | 
[V:3] A8A4 | 
[V:4] C,4D,6C,2 | 
[V:1] z12 | 
[V:2] c4d8 | 
[V:3] A4G8 | 
[V:4] A,,4B,,8 | 
[V:1] E8E4 | 
[V:2] c8B4 | 
[V:3] z4E4G4 | 
[V:4] A,,4z4z4 | 
[V:1] E4D8 | 
[V:2] c4A8 | 
[V:3] A4F8 | 
[V:4] z12 | 
[V:1] z4z4E4 | 
[V:2] B8c4 | 
[V:3] E8z4 | 
[V:4] z12 | 
[V:1] E6F2G4 | 
[V:2] A2B2c2d2e4 | 
[V:3] z12 | 
[V:4] z12 | 
[V:1] A4F8 | 
[V:2] f4d8 | 
[V:3] z12 | 
[V:4] z12 | 
[V:1] E4z4C4 | 
[V:2] e4z4z4 | 
[V:3] G4G4A4- | 
[V:4] C,4C,4F,4- | 
[V:1] D4F8 | 
[V:2] z12 | 
[V:3] A2G2F2E2D4 | 
[V:4] F,2E,2D,8 | 
[V:1] E4D8 | 
[V:2] z12 | 
[V:3] A8^G4 | 
[V:4] A,,4B,,8 | 
[V:1] C6D2E2F2 | 
[V:2] e8c4- | 
[V:3] A4c6d2 | 
[V:4] A,,4A,,4C,4- | 
[V:1] G4A4E4 | 
[V:2] c4c4g4 | 
[V:3] e4A4c4- | 
[V:4] C,4F,4C,4 | 
[V:1] G4F6E2 | 
[V:2] e4d4z4 | 
[V:3] c2B2A8 | 
[V:4] C,4D,6A,,2 | 
[V:1] E8D4 | 
[V:2] c4A8 | 
[V:3] G4F8 | 
[V:4] C,4D,8 | 
[V:1] [M:2/1]E4z4 | 
[V:2] [M:2/1]B4c4 | 
[V:3] [M:2/1]E4A4 | 
[V:4] [M:2/1]z4A,,4 | 
[V:1] z4A4 | 
[V:2] B4c4 | 
[V:3] G4A4 | 
[V:4] E,4A,,4 | 
[V:1] c4B4 | 
[V:2] e4e2c2- | 
[V:3] E4z2G2 | 
[V:4] A,,4E,4 | 
[V:1] E4z2G2 | 
[V:2] cde2d2e2 | 
[V:3] A2G2A2B2 | 
[V:4] C,4F,2G,2 | 
[V:1] A2G2A2B2 | 
[V:2] f2g2f2d2 | 
[V:3] c6B2 | 
[V:4] F,2E,2F,2G,2- | 
[V:1] c4z4 | 
[V:2] fedcB4 | 
[V:3] A4G4 | 
[V:4] G,2F,2G,4 | 
[V:1] c6B2 | 
[V:2] e3defg2- | 
[V:3] z8 | 
[V:4] A,4z4 | 
[V:1] A4G4 | 
[V:2] g2^f2g4 | 
[V:3] z4B4 | 
[V:4] z4E,4 | 
[V:1] z4B4 | 
[V:2] e2f2g4 | 
[V:3] c4d4 | 
[V:4] A,4G,4 | 
[V:1] c4d4 | 
[V:2] a4z2d2 | 
[V:3] z4B4 | 
[V:4] F,2A,2G,4 | 
[V:1] e6dc | 
[V:2] g8 | 
[V:3] c8 | 
[V:4] C,8 | 
[V:1] B4c2d2- | 
[V:2] g4z2g2 | 
[V:3] d4z4 | 
[V:4] G,4A,2G,2- | 
[V:1] dcBAG2A2 | 
[V:2] d2g4f2 | 
[V:3] B4c4 | 
[V:4] G,2G,2E,2F,2 | 
[V:1] B2E3FG2 | 
[V:2] d2c2g4 | 
[V:3] G2c3de2- | 
[V:4] G,2A,2E,4 | 
[V:1] C3DEFGA | 
[V:2] z8 | 
[V:3] e2ABcde2 | 
[V:4] z2F,2E,D,C,2 | 
[V:1] B2c2A2B2- | 
[V:2] g2e2f2d2- | 
[V:3] d2c2d4 | 
[V:4] G,2A,2F,2G,2 | 
[V:1] B2A4^G2 | 
[V:2] d4e4- | 
[V:3] A4B4 | 
[V:4] F,4E,4 | 
[V:1] A8 |]  
[V:2] e8 |]  
[V:3] A8 |]  
[V:4] A,,8 |]  



